src/DGTrafficControl/skin/basic/img/DGRoundControl__trafficIcon.svg

<?xml version="1.0" encoding="utf-8"?>
<!-- Generator: Adobe Illustrator 17.1.0, SVG Export Plug-In . SVG Version: 6.00 Build 0)  -->
<!DOCTYPE svg PUBLIC "-//W3C//DTD SVG 1.1//EN" "http://www.w3.org/Graphics/SVG/1.1/DTD/svg11.dtd">
<svg version="1.1" id="Layer_1" xmlns="http://www.w3.org/2000/svg" xmlns:xlink="http://www.w3.org/1999/xlink" x="0px" y="0px"
	 width="20px" height="14px" viewBox="0 0 20 14" enable-background="new 0 0 20 14" xml:space="preserve">
<path fill-rule="evenodd" clip-rule="evenodd" fill="#616161" d="M18,5c0-1-1-4-3-4h-3h-2C8,1,7,4,7,5H5v2h1v4c0,0.6,0,1,1,1v2h2v-2
	h7v2h2v-2c1,0,1-0.4,1-1V7h1V5H18z M10,3h2h3c2,0,2,1,2,3H8C8,4,8,3,10,3z M9,10H8c-0.6,0-1-0.4-1-1c0-0.6,0.4-1,1-1h1
	c0.6,0,1,0.4,1,1C10,9.6,9.6,10,9,10z M17,10h-1c-0.6,0-1-0.4-1-1c0-0.6,0.4-1,1-1h1c0.6,0,1,0.4,1,1C18,9.6,17.6,10,17,10z M4,4h2
	V3H4C1,3,1,6,1,7H0v1h1v4h2v-1h2V7H2C2,6,2,4,4,4z M3,9l1,1H2V9H3z"/>
<g>
	<path fill="#FFFFFF" d="M16,8h1c0.4,0,0.7,0.2,0.8,0.5C17.9,8.4,18,8.2,18,8c0-0.6-0.4-1-1-1h-1c-0.6,0-1,0.4-1,1
		c0,0.2,0.1,0.4,0.2,0.5C15.3,8.2,15.6,8,16,8z"/>
	<path fill="#FFFFFF" d="M8,8h1c0.4,0,0.7,0.2,0.8,0.5C9.9,8.4,10,8.2,10,8c0-0.6-0.4-1-1-1H8C7.4,7,7,7.4,7,8
		c0,0.2,0.1,0.4,0.2,0.5C7.3,8.2,7.6,8,8,8z"/>
	<path fill="#FFFFFF" d="M6,3H4c0,0,0,0,0,0C2,3,2,5,2,6h0c0.1-1,0.5-2,2-2h1h1V3z"/>
	<rect y="7" fill="#FFFFFF" width="1" height="1"/>
	<path fill="#FFFFFF" d="M15,2h-3h-2C8,2,8,3,8,5h0c0-1.3,0.3-2,2-2h2h3c1.7,0,1.9,0.7,2,2h0C17,3,17,2,15,2z"/>
	<polygon fill="#FFFFFF" points="2,9 3,9 3,9 4,9 3,8 2,8 2,9 2,9 	"/>
	<path fill="#FFFFFF" d="M7,11c-1,0-1-0.4-1-1v1c0,0.6,0,1,1,1V11z"/>
	<path fill="#FFFFFF" d="M18,11v1c1,0,1-0.4,1-1v-1C19,10.6,19,11,18,11z"/>
	<rect x="19" y="6" fill="#FFFFFF" width="1" height="1"/>
	<polygon fill="#FFFFFF" points="5,10 3,10 3,11 1,11 1,12 3,12 3,11 5,11 5,7 5,7 	"/>
	<rect x="16" y="13" fill="#FFFFFF" width="2" height="1"/>
	<rect x="5" y="6" fill="#FFFFFF" width="1" height="1"/>
	<polygon fill="#FFFFFF" points="16,11 9,11 9,13 7,13 7,14 9,14 9,12 16,12 	"/>
</g>
<g>
	<path fill="#444444" d="M2,6c0,0.4,0,0.7,0,1h3V6H2z"/>
	<polygon fill="#444444" points="4,10 3,9 2,9 2,10 	"/>
	<path fill="#444444" d="M4,3h2V2H4C1,2,1,5,1,6H0v1h1C1,6,1,3,4,3z"/>
	<path fill="#444444" d="M18,4c0-1-1-4-3-4h-3h-2C8,0,7,3,7,4H6H5v1h2c0-1,1-4,3-4h2h3c2,0,3,3,3,4h2V4H18z"/>
	<path fill="#444444" d="M8,10h1c0.6,0,1-0.4,1-1c0-0.2-0.1-0.4-0.2-0.5C9.7,8.8,9.4,9,9,9H8C7.6,9,7.3,8.8,7.2,8.5
		C7.1,8.6,7,8.8,7,9C7,9.6,7.4,10,8,10z"/>
	<path fill="#444444" d="M17,6c0-0.4,0-0.7,0-1H8c0,0.3,0,0.6,0,1H17z"/>
	<path fill="#444444" d="M17.8,8.5C17.7,8.8,17.4,9,17,9h-1c-0.4,0-0.7-0.2-0.8-0.5C15.1,8.6,15,8.8,15,9c0,0.6,0.4,1,1,1h1
		c0.6,0,1-0.4,1-1C18,8.8,17.9,8.6,17.8,8.5z"/>
</g>
</svg>

<svg xmlns="http://www.w3.org/2000/svg" width="20" height="14" viewBox="0 0 20 14">
    <path d="M 18,5 C 18,4 17,1 15,1 H 12 10 C 8,1 7,4 7,5 H 5 v 2 h 1 v 4 c 0,0.6 0,1 1,1 v 2 h 2 v -2 h 7 v 2 h 2 v -2 c 1,0 1,-0.4 1,-1 V 7 h 1 V 5 H 18 z M 10,3 h 2 3 c 2,0 2,1 2,3 H 8 C 8,4 8,3 10,3 z M 9,10 H 8 C 7.4,10 7,9.6 7,9 7,8.4 7.4,8 8,8 h 1 c 0.6,0 1,0.4 1,1 0,0.6 -0.4,1 -1,1 z m 8,0 H 16 C 15.4,10 15,9.6 15,9 15,8.4 15.4,8 16,8 h 1 c 0.6,0 1,0.4 1,1 0,0.6 -0.4,1 -1,1 z M 4,4 H 6 V 3 H 4 C 1,3 1,6 1,7 H 0 v 1 h 1 v 4 H 3 V 11 H 5 V 7 H 2 C 2,6 2,4 4,4 z M 3,9 4,10 H 2 V 9 h 1 z" fill="#616161" fill-rule="evenodd"/>
    <g fill="#fff">
        <path d="m 16,8 h 1 c 0.4,0 0.7,0.2 0.8,0.5 C 17.9,8.4 18,8.2 18,8 18,7.4 17.6,7 17,7 h -1 c -0.6,0 -1,0.4 -1,1 0,0.2 0.1,0.4 0.2,0.5 C 15.3,8.2 15.6,8 16,8 z"/>
        <path d="M 8,8 H 9 C 9.4,8 9.7,8.2 9.8,8.5 9.9,8.4 10,8.2 10,8 10,7.4 9.6,7 9,7 H 8 C 7.4,7 7,7.4 7,8 7,8.2 7.1,8.4 7.2,8.5 7.3,8.2 7.6,8 8,8 z"/>
        <path d="M 6,3 H 4 C 4,3 4,3 4,3 2,3 2,5 2,6 H 2 C 2.1,5 2.5,4 4,4 H 5 6 V 3 z"/>
        <path d="M0 7H1V8H0z"/>
        <path d="M 15,2 H 12 10 C 8,2 8,3 8,5 H 8 C 8,3.7 8.3,3 10,3 h 2 3 c 1.7,0 1.9,0.7 2,2 h 0 C 17,3 17,2 15,2 z"/>
        <path d="M3 9L4 9 3 8 2 8 2 9 2 9 2 9 3 9z"/>
        <path d="M 7,11 C 6,11 6,10.6 6,10 v 1 c 0,0.6 0,1 1,1 v -1 z"/>
        <path d="m 18,11 v 1 c 1,0 1,-0.4 1,-1 v -1 c 0,0.6 0,1 -1,1 z"/>
        <path d="M19 6H20V7H19z"/>
        <path d="M3 11L1 11 1 12 3 12 3 11 5 11 5 7 5 7 5 10 3 10z"/>
        <path d="M16 13H18V14H16z"/>
        <path d="M5 6H6V7H5z"/>
        <path d="M9 13L7 13 7 14 9 14 9 12 16 12 16 11 9 11z"/>
    </g>
    <g fill="#444">
        <path d="M 2,6 C 2,6.4 2,6.7 2,7 H 5 V 6 H 2 z"/>
        <path d="M2 9L2 10 4 10 3 9z"/>
        <path d="M 4,3 H 6 V 2 H 4 C 1,2 1,5 1,6 H 0 V 7 H 1 C 1,6 1,3 4,3 z"/>
        <path d="M 18,4 C 18,3 17,0 15,0 H 12 10 C 8,0 7,3 7,4 H 6 5 V 5 H 7 C 7,4 8,1 10,1 h 2 3 c 2,0 3,3 3,4 h 2 V 4 h -2 z"/>
        <path d="M 8,10 H 9 C 9.6,10 10,9.6 10,9 10,8.8 9.9,8.6 9.8,8.5 9.7,8.8 9.4,9 9,9 H 8 C 7.6,9 7.3,8.8 7.2,8.5 7.1,8.6 7,8.8 7,9 c 0,0.6 0.4,1 1,1 z"/>
        <path d="M 17,6 C 17,5.6 17,5.3 17,5 H 8 c 0,0.3 0,0.6 0,1 h 9 z"/>
        <path d="M 17.8,8.5 C 17.7,8.8 17.4,9 17,9 H 16 C 15.6,9 15.3,8.8 15.2,8.5 15.1,8.6 15,8.8 15,9 c 0,0.6 0.4,1 1,1 h 1 c 0.6,0 1,-0.4 1,-1 0,-0.2 -0.1,-0.4 -0.2,-0.5 z"/>
    </g>
</svg>
